app/assets/images/icons/telegram.svg

<svg xmlns="http://www.w3.org/2000/svg" width="40" height="40" fill="none" viewBox="0 0 24 24"><circle cx="12" cy="12" r="11" fill="#fff"/><path fill="#08C" d="M12 0C5.371 0 0 5.372 0 12c0 6.627 5.371 12 12 12 6.627 0 12-5.373 12-12 0-6.628-5.373-12-12-12Zm4.869 7.482-2.197 9.178c-.142.631-.522.776-1.01.481l-2.426-1.562-1.27 1.228c-.161.16-.297.296-.606.296l.193-2.458 4.898-4.726c.212-.184-.03-.289-.307-.104L7.791 13.85l-2.335-.711c-.612-.19-.629-.614.139-.925l10.543-4.62c.508-.206.898.077.731-.112Z"/></svg>

<svg xmlns="http://www.w3.org/2000/svg" width="40" height="40" viewBox="0 0 24 24" fill="none">
  <circle cx="12" cy="12" r="11" fill="white"/>
  <path d="M12 0C5.371 0 0 5.372 0 12C0 18.627 5.371 24 12 24C18.627 24 24 18.627 24 12C24 5.372 18.627 0 12 0ZM16.869 7.482L14.672 16.66C14.53 17.291 14.15 17.436 13.662 17.141L11.236 15.579L9.966 16.807C9.805 16.967 9.669 17.103 9.36 17.103L9.553 14.645L14.451 9.919C14.663 9.735 14.421 9.63 14.144 9.815L7.791 13.85L5.456 13.139C4.844 12.949 4.827 12.525 5.595 12.214L16.138 7.594C16.646 7.388 17.036 7.671 16.869 7.482Z" fill="#0088CC"/>
</svg>
